svgs/solid/oil-can.svg

<svg xmlns="http://www.w3.org/2000/svg" viewBox="0 0 640 512"><!--! Font Awesome Free 7.2.0 by @fontawesome - https://fontawesome.com License - https://fontawesome.com/license/free (Icons: CC BY 4.0, Fonts: SIL OFL 1.1, Code: MIT License) Copyright 2026 Fonticons, Inc. --><path fill="currentColor" d="M320 128c17.7 0 32-14.3 32-32s-14.3-32-32-32L192 64c-17.7 0-32 14.3-32 32s14.3 32 32 32l32 0 0 32-176 0c-26.5 0-48 21.5-48 48l0 64.8c0 19 11.2 36.2 28.5 43.9l67.5 30 0 21.3c0 26.5 21.5 48 48 48l259.1 0c18.4 0 35.8-7.9 48-21.7L633.5 187.7c12.3-13.9-.3-35.4-18.4-31.5L448 192 397.5 166.8c-8.9-4.4-18.7-6.8-28.6-6.8l-80.9 0 0-32 32 0zM96 208l0 86.1-48-21.3 0-64.8 48 0z"/></svg>

<svg xmlns="http://www.w3.org/2000/svg" viewBox="0 0 640 512"><!--! Font Awesome Free 6.5.2 by @fontawesome - https://fontawesome.com License - https://fontawesome.com/license/free (Icons: CC BY 4.0, Fonts: SIL OFL 1.1, Code: MIT License) Copyright 2024 Fonticons, Inc. --><path d="M320 128c17.7 0 32-14.3 32-32s-14.3-32-32-32H192c-17.7 0-32 14.3-32 32s14.3 32 32 32h32v32H144 96 48c-26.5 0-48 21.5-48 48v64.8c0 19 11.2 36.2 28.5 43.9l67.5 30V368c0 26.5 21.5 48 48 48H403.1c18.4 0 35.8-7.9 48-21.7L633.5 187.7c12.3-13.9-.3-35.4-18.4-31.5L448 192l-50.5-25.2c-8.9-4.4-18.7-6.8-28.6-6.8H288V128h32zM96 208v86.1L48 272.8V208H96z"/></svg>
